src/main/webapp/img/save.svg

<?xml version="1.0" ?><svg height="24" version="1.1" width="24" xmlns="http://www.w3.org/2000/svg" xmlns:cc="http://creativecommons.org/ns#" xmlns:dc="http://purl.org/dc/elements/1.1/" xmlns:rdf="http://www.w3.org/1999/02/22-rdf-syntax-ns#"><g transform="translate(0 -1028.4)"><path d="m3 1037.4v2 2 6c0 1.1 0.8954 2 2 2h14c1.105 0 2-0.9 2-2v-6-2-2h-18z" fill="#2980b9"/><path d="m5 3c-1.1046 0-2 0.8954-2 2v2 2 1 2 6c0 1.105 0.8954 2 2 2h14c1.105 0 2-0.895 2-2v-6-2-1-2-1l-3-3h-1-2-10z" fill="#3498db" transform="translate(0 1028.4)"/><path d="m6 3v1 1 2c0 1.1046 0.8954 2 2 2h1 4 2 1c1.105 0 2-0.8954 2-2v-1.8438-0.1562-1-1h-12z" fill="#2980b9" transform="translate(0 1028.4)"/><path d="m8 1041.4c-1.1046 0-2 0.9-2 2v1.8 3.2h12v-3.2-1.8c0-1.1-0.895-2-2-2h-3-5z" fill="#ecf0f1"/><rect fill="#bdc3c7" height="1" width="12" x="6" y="1048.4"/><path d="m7 1031.4v1 2c0 1.1 0.8954 2 2 2h1 4 1c1.105 0 2-0.9 2-2v-1.9-0.1-1h-10z" fill="#ecf0f1"/><path d="m8 4v2c0 0.5523 0.4477 1 1 1h1 1c0.552 0 1-0.4477 1-1v-2h-2-2z" fill="#95a5a6" transform="translate(0 1028.4)"/><g fill="#bdc3c7"><rect height="1" transform="translate(0 1028.4)" width="8" x="8" y="15"/><rect height="1" width="8" x="8" y="1045.4"/><rect height="1" width="4" x="8" y="1031.4"/></g></g></svg>

<?xml version="1.0" encoding="UTF-8" standalone="no"?>
<svg
   xmlns:dc="http://purl.org/dc/elements/1.1/"
   xmlns:cc="http://creativecommons.org/ns#"
   xmlns:rdf="http://www.w3.org/1999/02/22-rdf-syntax-ns#"
   xmlns:svg="http://www.w3.org/2000/svg"
   xmlns="http://www.w3.org/2000/svg"
   xmlns:sodipodi="http://sodipodi.sourceforge.net/DTD/sodipodi-0.dtd"
   xmlns:inkscape="http://www.inkscape.org/namespaces/inkscape"
   height="100"
   version="1.1"
   width="100"
   id="svg2"
   inkscape:version="0.48.4 r9939"
   sodipodi:docname="save.svg">
  <metadata
     id="metadata32">
    <rdf:RDF>
      <cc:Work
         rdf:about="">
        <dc:format>image/svg+xml</dc:format>
        <dc:type
           rdf:resource="http://purl.org/dc/dcmitype/StillImage" />
      </cc:Work>
    </rdf:RDF>
  </metadata>
  <defs
     id="defs30" />
  <sodipodi:namedview
     pagecolor="#ffffff"
     bordercolor="#666666"
     borderopacity="1"
     objecttolerance="10"
     gridtolerance="10"
     guidetolerance="10"
     inkscape:pageopacity="0"
     inkscape:pageshadow="2"
     inkscape:window-width="1600"
     inkscape:window-height="1178"
     id="namedview28"
     showgrid="false"
     inkscape:zoom="4.9166667"
     inkscape:cx="-8.6451831"
     inkscape:cy="10.391995"
     inkscape:window-x="-8"
     inkscape:window-y="-8"
     inkscape:window-maximized="1"
     inkscape:current-layer="svg2" />
  <g
     transform="matrix(5.2146835,0,0,5.2146835,-12.644051,-5375.289)"
     id="g4">
    <path
       d="m 3,1037.4 v 2 2 6 c 0,1.1 0.8954,2 2,2 h 14 c 1.105,0 2,-0.9 2,-2 v -6 -2 -2 H 3 z"
       id="path6"
       inkscape:connector-curvature="0"
       style="fill:#2980b9" />
    <path
       d="M 5,3 C 3.8954,3 3,3.8954 3,5 v 2 2 1 2 6 c 0,1.105 0.8954,2 2,2 h 14 c 1.105,0 2,-0.895 2,-2 V 12 10 9 7 6 L 18,3 H 17 15 5 z"
       transform="translate(0,1028.4)"
       id="path8"
       inkscape:connector-curvature="0"
       style="fill:#3498db" />
    <path
       d="m 6,3 v 1 1 2 c 0,1.1046 0.8954,2 2,2 h 1 4 2 1 c 1.105,0 2,-0.8954 2,-2 V 5.1562 5 4 3 H 6 z"
       transform="translate(0,1028.4)"
       id="path10"
       inkscape:connector-curvature="0"
       style="fill:#2980b9" />
    <path
       d="m 8,1041.4 c -1.1046,0 -2,0.9 -2,2 v 1.8 3.2 h 12 v -3.2 -1.8 c 0,-1.1 -0.895,-2 -2,-2 H 13 8 z"
       id="path12"
       inkscape:connector-curvature="0"
       style="fill:#ecf0f1" />
    <rect
       height="1"
       width="12"
       x="6"
       y="1048.4"
       id="rect14"
       style="fill:#bdc3c7" />
    <path
       d="m 7,1031.4 v 1 2 c 0,1.1 0.8954,2 2,2 h 1 4 1 c 1.105,0 2,-0.9 2,-2 v -1.9 -0.1 -1 H 7 z"
       id="path16"
       inkscape:connector-curvature="0"
       style="fill:#ecf0f1" />
    <path
       d="m 8,4 v 2 c 0,0.5523 0.4477,1 1,1 h 1 1 c 0.552,0 1,-0.4477 1,-1 V 4 H 10 8 z"
       transform="translate(0,1028.4)"
       id="path18"
       inkscape:connector-curvature="0"
       style="fill:#95a5a6" />
    <g
       id="g20"
       style="fill:#bdc3c7">
      <rect
         height="1"
         transform="translate(0,1028.4)"
         width="8"
         x="8"
         y="15"
         id="rect22" />
      <rect
         height="1"
         width="8"
         x="8"
         y="1045.4"
         id="rect24" />
      <rect
         height="1"
         width="4"
         x="8"
         y="1031.4"
         id="rect26" />
    </g>
  </g>
</svg>
